swiss/communes/0755.svg

<?xml version="1.0" encoding="UTF-8" standalone="no"?>
<svg
   xmlns:dc="http://purl.org/dc/elements/1.1/"
   xmlns:cc="http://web.resource.org/cc/"
   xmlns:rdf="http://www.w3.org/1999/02/22-rdf-syntax-ns#"
   xmlns:svg="http://www.w3.org/2000/svg"
   xmlns="http://www.w3.org/2000/svg"
   xmlns:xlink="http://www.w3.org/1999/xlink"
   xmlns:sodipodi="http://sodipodi.sourceforge.net/DTD/sodipodi-0.dtd"
   xmlns:inkscape="http://www.inkscape.org/namespaces/inkscape"
   height="763"
   width="603"
   version="1.0"
   id="svg20"
   sodipodi:version="0.32"
   inkscape:version="0.44.1"
   sodipodi:docname="Worben-coat of arms.svg"
   sodipodi:docbase="F:\Mis Documentos\Mis imágenes\Encyclopédie\Escudos de Suiza">
  <metadata
     id="metadata31">
    <rdf:RDF>
      <cc:Work
         rdf:about="">
        <dc:format>image/svg+xml</dc:format>
        <dc:type
           rdf:resource="http://purl.org/dc/dcmitype/StillImage" />
        <dc:date>07-AUG-2006</dc:date>
        <dc:creator>
          <cc:Agent>
            <dc:title>Jérôme BLUM (wagner51)</dc:title>
          </cc:Agent>
        </dc:creator>
        <cc:license
           rdf:resource="http://creativecommons.org/licenses/GPL/2.0/" />
        <dc:coverage />
        <dc:description>Gabarit pour le Projet:Blasons de WIkipédia</dc:description>
        <dc:subject>
          <rdf:Bag>
            <rdf:li>blason suisse modèle gabarit projet blasons</rdf:li>
          </rdf:Bag>
        </dc:subject>
        <dc:language>fr</dc:language>
        <dc:title>Gabrit d'un blason suisse</dc:title>
      </cc:Work>
      <cc:License
         rdf:about="http://creativecommons.org/licenses/GPL/2.0/">
        <cc:permits
           rdf:resource="http://web.resource.org/cc/Reproduction" />
        <cc:permits
           rdf:resource="http://web.resource.org/cc/Distribution" />
        <cc:requires
           rdf:resource="http://web.resource.org/cc/Notice" />
        <cc:permits
           rdf:resource="http://web.resource.org/cc/DerivativeWorks" />
        <cc:requires
           rdf:resource="http://web.resource.org/cc/ShareAlike" />
        <cc:requires
           rdf:resource="http://web.resource.org/cc/SourceCode" />
      </cc:License>
    </rdf:RDF>
  </metadata>
  <defs
     id="defs29">
    <linearGradient
       id="linearGradient2893">
      <stop
         style="stop-color:#ffffff;stop-opacity:0.3137255;"
         offset="0"
         id="stop2895" />
      <stop
         id="stop2897"
         offset="0.19"
         style="stop-color:#ffffff;stop-opacity:0.25098041;" />
      <stop
         style="stop-color:#6b6b6b;stop-opacity:0.1254902;"
         offset="0.60000002"
         id="stop2901" />
      <stop
         style="stop-color:#000000;stop-opacity:0.1254902;"
         offset="1"
         id="stop2899" />
    </linearGradient>
    <linearGradient
       id="linearGradient2955">
      <stop
         style="stop-color:white;stop-opacity:0;"
         offset="0"
         id="stop2965" />
      <stop
         style="stop-color:black;stop-opacity:0.64583331;"
         offset="1"
         id="stop2959" />
    </linearGradient>
    <radialGradient
       inkscape:collect="always"
       xlink:href="#linearGradient2893"
       id="radialGradient3236"
       gradientUnits="userSpaceOnUse"
       gradientTransform="matrix(1.215027,1.531577e-24,1.464684e-23,1.266667,-839.1924,-490.4894)"
       cx="858.04236"
       cy="579.93323"
       fx="858.04236"
       fy="579.93323"
       r="300" />
  </defs>
  <sodipodi:namedview
     inkscape:window-height="682"
     inkscape:window-width="1024"
     inkscape:pageshadow="2"
     inkscape:pageopacity="0.0"
     guidetolerance="10.0"
     gridtolerance="10.0"
     objecttolerance="10.0"
     borderopacity="1.0"
     bordercolor="#666666"
     pagecolor="#ffffff"
     id="base"
     inkscape:zoom="0.5"
     inkscape:cx="261.48834"
     inkscape:cy="396.95895"
     inkscape:window-x="-4"
     inkscape:window-y="-4"
     inkscape:current-layer="layer2"
     showgrid="true" />
  <desc
     id="desc22">Coat of Arms of Canton of Freiburg (Fribourg)</desc>
  <g
     inkscape:groupmode="layer"
     id="layer1"
     inkscape:label="Fond écu"
     sodipodi:insensitive="true">
    <path
       id="path1899"
       d="M 1.5,1.49998 L 1.5,460.3679 C 1.5,626.6785 135.81456,761.5 301.49999,761.5 C 467.18543,761.5 601.5,626.6785 601.5,460.3679 L 601.5,1.49998 L 1.5,1.49998 z "
       style="fill:#2b5df2;fill-opacity:1" />
  </g>
  <g
     inkscape:groupmode="layer"
     id="layer2"
     inkscape:label="Meubles"
     sodipodi:insensitive="true">
    <g
       id="g9963"
       transform="matrix(4.16448,0,0,4.16448,-2598.161,-2378.954)">
      <path
         style="fill:#fcef3c;fill-opacity:1;fill-rule:evenodd;stroke:black;stroke-width:1px;stroke-linecap:butt;stroke-linejoin:miter;stroke-opacity:1"
         d="M 739.35683,639.4728 C 739.10529,643.05601 739.37739,649.09626 737.58518,653.71169 C 702.94064,686.15284 721.18638,705.71634 739.62482,725.23293 C 737.50642,727.13902 732.92756,730.92877 729.85686,732.61739 C 704.75799,695.74304 703.03064,674.70318 748.54906,630.18213 C 703.06248,674.81136 704.67309,695.66218 729.85686,732.61739 C 728.01978,733.99026 723.78256,735.48327 721.34808,736.44432 C 682.02715,669.8712 748.87968,613.20056 749.28148,617.68524 C 748.96602,613.15285 682.08164,669.83466 721.34808,736.44432 C 719.82564,736.76167 714.72019,738.50602 713.35308,738.54897 L 714.26803,741.17008 C 712.04323,741.8242 706.53748,742.39274 704.2921,742.78872 C 700.64368,712.13421 691.0053,645.02633 720.93887,603.50195 C 691.02186,645.03513 700.69828,712.16705 704.2921,742.78872 C 698.64985,743.299 692.11719,743.32856 685.87273,742.58414 C 688.898,722.03769 700.04017,653.39666 669.17796,604.74171 C 699.99288,653.51394 688.93689,721.92533 685.87273,742.58414 C 684.50658,742.30962 677.99378,741.17126 676.70615,740.8041 L 677.43812,738.18299 C 674.51116,737.90401 670.6045,736.49635 667.66154,735.48423 C 709.02031,670.95722 637.70424,613.99531 643.16081,618.81375 C 637.7947,614.07289 709.12112,670.97363 667.66154,735.48423 C 665.43871,734.52176 662.92108,733.27434 660.47861,731.77733 C 671.19783,710.42621 698.99677,682.58627 642.60779,631.15782 C 699.04036,682.63096 671.36376,710.34855 660.47861,731.77733 C 658.20583,730.187 653.84137,726.89069 652.25513,724.88914 C 672.6501,702.70199 681.90449,677.75968 650.49285,651.87206 C 649.57653,646.6492 649.03646,643.75459 650.03703,637.62425 C 649.07032,643.71963 649.58269,646.71511 650.49285,651.87206 C 652.06187,658.70242 655.34174,669.23742 658.17008,675.43812 C 644.81129,665.08051 640.52562,648.48686 640.09692,637.89171 C 640.95475,632.30776 643.62652,625.62496 647.27749,622.13831 C 643.62418,625.58151 640.88536,632.25608 640.09692,637.89171 C 638.83181,646.63227 638.32261,655.07046 639.08504,663 C 633.33514,653.66177 630.17707,638.56183 636.78887,623.67866 C 642.36891,617.97708 649.69989,614.1271 658.22623,613.52281 C 649.71795,614.04754 642.27088,617.95075 636.78887,623.67866 C 630.81685,629.47397 629.38316,637.74475 627.56188,645.8041 C 625.69643,631.24548 625.41826,615.52089 648.1601,603.38944 C 658.60628,603.2018 669.0802,604.50215 677.93847,605.92786 C 669.09571,604.5159 658.63665,603.17381 648.07433,603.45414 C 652.02255,606.13394 654.63824,609.18654 658.55773,613.23591 C 654.5918,609.23291 652.00886,606.05125 647.95713,603.38944 C 641.87144,603.05208 635.59887,604.19624 629.02581,607.75778 C 642.23253,596.53386 654.17438,591.71213 668.47684,595.92786 C 676.31887,601.50883 681.63394,610.23193 686.64692,619.09795 C 681.60321,610.19278 676.39354,601.48122 668.47684,595.92786 C 662.74951,591.20207 655.49816,589.52432 648.35308,587.63402 C 668.19102,577.50798 681.60616,592.12638 687.37889,605.56188 C 683.19975,595.3732 678.5566,585.76452 672.43812,578 C 683.30263,582.17103 690.59271,589.32076 695.6082,598.36598 C 701.42677,588.14563 706.88818,582.06465 715.7912,578.73197 C 710.45169,585.97232 705.77125,593.87173 702.37889,603.05923 C 714.86718,583.93313 730.98362,583.9528 741.28094,587.2088 C 736.60252,587.55405 730.41507,590.10414 725.45688,593.02009 C 712.70637,600.51877 709.74039,610.40826 703.65983,619.46393 C 709.88226,610.42599 712.80208,600.44444 725.24222,593.18299 C 741.40965,592.52238 752.61271,597.92933 760,608 C 754.66903,604.65745 750.15622,603.72167 744.07705,602.93474 C 735.66436,601.85167 722.76312,602.39479 712.69913,604.55543 C 722.83546,602.39315 735.67776,601.83983 744.01054,602.92066 C 744.58399,603.05801 729.89932,611.89256 730.48013,612.07467 C 731.37903,612.35653 743.20102,602.59948 744.10463,602.9927 C 754.65607,607.58431 767.13936,620.31306 764.76722,644.42604 C 762.27353,636.77773 758.93758,629.97644 755.61604,624.78527 C 750.48406,616.02851 741.68152,612.14521 730.45033,612.04932 C 741.67463,612.16523 750.49267,616.00663 755.33777,624.60202 C 756.74095,629.41985 762.62092,647.35379 747.98709,663.91496 C 750.74098,654.19422 750.47245,644.13765 749.43425,633.99556 C 748.61421,628.28343 747.90307,626.18009 743.39168,620.84072 C 747.90125,626.29419 748.64417,628.33506 749.01504,634.01093 C 748.47893,649.11232 744.86277,664.96338 731.58051,676.75962 C 734.77424,670.17638 738.28033,661.87312 738.46914,653.78743 C 739.32297,649.1823 739.09514,643.04227 739.35683,639.4728 z "
         id="path9072"
         sodipodi:nodetypes="ccccccccccccccccccccccccccccccccccccccccccccccccccccccscccsccssccccccccccc" />
      <path
         id="path1923"
         d="M 658.78125,606.5 C 658.37316,606.71143 658.67219,608.30017 660,610.96875 C 660.06782,611.10505 660.12001,611.23906 660.1875,611.375 C 658.30685,612.73742 657.29776,615.26432 658.71875,618.375 L 669.75,644.6875 C 671.17617,647.87953 673.89692,648.85233 676.25,648.375 C 690.72626,688.99443 685.10019,709.69685 676.5,737.46875 C 676.63842,738.12047 676.83646,738.119 677.4375,738.1875 L 676.98646,740.56591 L 677.625,740.53125 C 687.01062,710.57745 693.46411,687.79638 678.65625,647.25 C 680.39345,645.84572 681.24285,643.38983 679.75,640.46875 L 668.71875,614.03125 C 667.33605,610.70195 664.38545,609.84524 661.9375,610.5625 C 661.89299,610.47858 661.85715,610.39655 661.8125,610.3125 C 660.29444,607.45489 659.18934,606.28857 658.78125,606.5 z "
         style="fill:black;fill-opacity:1;fill-rule:evenodd;stroke:black;stroke-width:1px;stroke-linecap:butt;stroke-linejoin:miter;stroke-opacity:1"
         sodipodi:nodetypes="csccccccccccccsc" />
      <path
         id="path9960"
         d="M 730.96875,606.5 C 730.46309,606.62067 729.45332,607.81209 728.125,610.3125 C 728.08035,610.39655 728.04454,610.47858 728,610.5625 C 725.55205,609.84524 722.60148,610.70195 721.21875,614.03125 L 710.1875,640.46875 C 708.69465,643.38983 709.54408,645.84572 711.28125,647.25 C 696.47339,687.79638 703.30895,711.08683 712.69454,741.04063 L 713.82046,740.62396 L 712.9365,738.83259 L 713.69219,737.97813 C 705.092,710.20623 699.21127,688.99443 713.6875,648.375 C 716.04058,648.85233 718.76136,647.87953 720.1875,644.6875 L 731.21875,618.375 C 732.63974,615.26432 731.63068,612.73742 729.75,611.375 C 729.81749,611.23906 729.86971,611.10505 729.9375,610.96875 C 731.26531,608.30017 731.56437,606.71143 731.15625,606.5 C 731.10524,606.47357 731.04099,606.48276 730.96875,606.5 z "
         style="fill:black;fill-opacity:1;fill-rule:evenodd;stroke:black;stroke-width:1px;stroke-linecap:butt;stroke-linejoin:miter;stroke-opacity:1"
         sodipodi:nodetypes="csccccccccccccssc" />
      <path
         id="path5520"
         d="M 695.53125,588.6875 C 694.98705,588.68775 694.4338,589.4053 694.4375,590.8125 L 694.4375,601.71875 C 691.96709,602.33246 690.09375,605.37305 690.09375,609.09375 L 690.09375,634.90625 C 690.09375,638.59794 691.93326,641.63439 694.375,642.28125 L 694.28125,742.8125 L 697.25,742.8125 L 696.84375,642.09375 C 699.01559,641.17365 700.59375,638.32455 700.59375,634.90625 L 700.59375,609.09375 C 700.59375,605.59879 698.93487,602.72552 696.6875,601.875 L 696.65625,590.8125 C 696.63346,589.40428 696.07545,588.68725 695.53125,588.6875 z "
         style="fill:black;fill-opacity:1;fill-rule:evenodd;stroke:black;stroke-width:1px;stroke-linecap:butt;stroke-linejoin:miter;stroke-opacity:1" />
      <g
         id="g8180">
        <path
           style="fill:#fcef3c;fill-opacity:1;fill-rule:evenodd;stroke:black;stroke-width:1px;stroke-linecap:butt;stroke-linejoin:miter;stroke-opacity:1"
           d="M 670,678 L 720,678 C 726.38057,678.61605 725.65326,687.90153 718.18848,688 L 670.90576,688 C 661.50201,687.9601 662.74624,678.12644 670,678 z "
           id="path2848"
           sodipodi:nodetypes="ccccc" />
        <path
           style="fill:#fcef3c;fill-opacity:1;fill-rule:evenodd;stroke:black;stroke-width:1px;stroke-linecap:butt;stroke-linejoin:miter;stroke-opacity:1"
           d="M 672.02393,678.25879 L 679.87061,688.38818"
           id="path3735"
           sodipodi:nodetypes="cc" />
        <path
           style="fill:#fcef3c;fill-opacity:1;fill-rule:evenodd;stroke:black;stroke-width:1px;stroke-linecap:butt;stroke-linejoin:miter;stroke-opacity:1"
           d="M 684.35303,678.25879 L 691.68213,688.12939"
           id="path3737"
           sodipodi:nodetypes="cc" />
        <path
           style="fill:#fcef3c;fill-opacity:1;fill-rule:evenodd;stroke:black;stroke-width:1px;stroke-linecap:butt;stroke-linejoin:miter;stroke-opacity:1"
           d="M 696.16455,678.38818 L 703.62305,688.38818"
           id="path3739"
           sodipodi:nodetypes="cc" />
        <path
           style="fill:#fcef3c;fill-opacity:1;fill-rule:evenodd;stroke:black;stroke-width:1px;stroke-linecap:butt;stroke-linejoin:miter;stroke-opacity:1"
           d="M 707.97607,677.87061 L 715.04639,688.12939"
           id="path3741"
           sodipodi:nodetypes="cc" />
      </g>
    </g>
  </g>
  <g
     inkscape:groupmode="layer"
     id="layer3"
     inkscape:label="Reflet final"
     style="display:inline"
     sodipodi:insensitive="true">
    <path
       style="fill:url(#radialGradient3236);fill-opacity:1"
       d="M 1.5,1.5 L 1.5,460.3679 C 1.5,626.67854 135.81454,761.5 301.49993,761.5 C 467.1854,761.5 601.5,626.67854 601.5,460.3679 L 601.5,1.5 L 1.5,1.5 z "
       id="path2346" />
  </g>
  <g
     inkscape:groupmode="layer"
     id="layer4"
     inkscape:label="Contour final"
     style="display:inline"
     sodipodi:insensitive="true">
    <path
       style="fill:none;fill-opacity:1;stroke:#000000;stroke-width:3;stroke-miterlimit:4;stroke-dasharray:none;stroke-opacity:1"
       d="M 1.5,1.5 L 1.5,460.36794 C 1.5,626.67854 135.81454,761.5 301.49993,761.5 C 467.1854,761.5 601.5,626.67854 601.5,460.36794 L 601.5,1.5 L 1.5,1.5 z "
       id="path3239" />
  </g>
</svg>

<svg xmlns="http://www.w3.org/2000/svg" xmlns:xlink="http://www.w3.org/1999/xlink" height="763" width="603" version="1.0"><defs><radialGradient xlink:href="#a" id="b" gradientUnits="userSpaceOnUse" gradientTransform="matrix(1.21503 0 0 1.26667 -839.192 -490.49)" cx="858.042" cy="579.933" fx="858.042" fy="579.933" r="300"/><linearGradient id="a"><stop style="stop-color:#fff;stop-opacity:.3137255" offset="0"/><stop offset=".19" style="stop-color:#fff;stop-opacity:.25098041"/><stop style="stop-color:#6b6b6b;stop-opacity:.1254902" offset=".6"/><stop style="stop-color:#000;stop-opacity:.1254902" offset="1"/></linearGradient></defs><path d="M1.5 1.5v458.868c0 166.31 134.315 301.132 300 301.132s300-134.822 300-301.132V1.5H1.5z" style="fill:#2b5df2;fill-opacity:1"/><path style="fill:#fcef3c;fill-opacity:1;fill-rule:evenodd;stroke:#000;stroke-width:1px;stroke-linecap:butt;stroke-linejoin:miter;stroke-opacity:1" d="M739.357 639.473c-.252 3.583.02 9.623-1.772 14.239-34.644 32.44-16.399 52.004 2.04 71.52-2.119 1.907-6.697 5.697-9.768 7.385-25.099-36.874-26.826-57.914 18.692-102.435-45.487 44.63-43.876 65.48-18.692 102.435-1.837 1.373-6.074 2.866-8.509 3.827-39.32-66.573 27.532-123.243 27.933-118.759-.315-4.532-67.2 52.15-27.933 118.76-1.522.317-6.628 2.061-7.995 2.104l.915 2.621c-2.225.654-7.73 1.223-9.976 1.619-3.648-30.655-13.287-97.763 16.647-139.287-29.917 41.533-20.24 108.665-16.647 139.287-5.642.51-12.175.54-18.42-.205 3.026-20.546 14.168-89.187-16.694-137.842 30.815 48.772 19.759 117.183 16.695 137.842-1.366-.274-7.88-1.413-9.167-1.78l.732-2.621c-2.927-.279-6.833-1.687-9.776-2.699 41.358-64.527-29.958-121.489-24.501-116.67-5.366-4.741 65.96 52.16 24.5 116.67-2.222-.962-4.74-2.21-7.182-3.707 10.719-21.35 38.518-49.19-17.871-100.62 56.432 51.474 28.756 79.192 17.87 100.62-2.272-1.59-6.637-4.886-8.223-6.888 20.395-22.187 29.65-47.13-1.762-73.017-.916-5.223-1.457-8.117-.456-14.248-.967 6.096-.454 9.091.456 14.248 1.569 6.83 4.849 17.365 7.677 23.566-13.359-10.357-17.644-26.951-18.073-37.546.858-5.584 3.53-12.267 7.18-15.754-3.653 3.444-6.392 10.118-7.18 15.754-1.265 8.74-1.774 17.178-1.012 25.108-5.75-9.338-8.908-24.438-2.296-39.321 5.58-5.702 12.91-9.552 21.437-10.156-8.508.525-15.955 4.428-21.437 10.156-5.972 5.795-7.406 14.066-9.227 22.125-1.866-14.559-2.144-30.283 20.598-42.415 10.446-.187 20.92 1.113 29.778 2.539-8.842-1.412-19.301-2.754-29.864-2.474 3.949 2.68 6.564 5.733 10.484 9.782-3.966-4.003-6.55-7.185-10.6-9.847-6.087-.337-12.36.807-18.932 4.369 13.207-11.224 25.148-16.046 39.45-11.83 7.843 5.58 13.158 14.304 18.17 23.17-5.043-8.905-10.252-17.617-18.17-23.17-5.726-4.726-12.978-6.404-20.123-8.294 19.838-10.126 33.253 4.492 39.026 17.928-4.18-10.189-8.822-19.797-14.94-27.562 10.864 4.171 18.154 11.32 23.17 20.366 5.818-10.22 11.28-16.301 20.182-19.634-5.34 7.24-10.02 15.14-13.412 24.327 12.488-19.126 28.605-19.106 38.902-15.85-4.678.345-10.866 2.895-15.824 5.811-12.75 7.499-15.717 17.388-21.797 26.444 6.222-9.038 9.142-19.02 21.582-26.281 16.168-.66 27.37 4.746 34.758 14.817-5.331-3.343-9.844-4.278-15.923-5.065-8.413-1.083-21.314-.54-31.378 1.62 10.136-2.162 22.979-2.715 31.312-1.634.573.137-14.112 8.972-13.53 9.154.898.282 12.72-9.476 13.624-9.082 10.551 4.591 23.034 17.32 20.662 41.433-2.493-7.648-5.83-14.45-9.151-19.64-5.132-8.757-13.934-12.64-25.166-12.737 11.225.116 20.043 3.958 24.888 12.553 1.403 4.818 7.283 22.752-7.35 39.313 2.753-9.72 2.484-19.777 1.446-29.92-.82-5.712-1.53-7.815-6.042-13.154 4.51 5.453 5.252 7.494 5.623 13.17-.536 15.101-4.152 30.952-17.434 42.749 3.193-6.584 6.7-14.887 6.888-22.973.854-4.605.626-10.745.888-14.314z" transform="translate(-2598.161 -2378.954) scale(4.16448)"/><path d="M658.781 606.5c-.408.211-.109 1.8 1.219 4.469.068.136.12.27.188.406-1.881 1.362-2.89 3.89-1.47 7l11.032 26.313c1.426 3.192 4.147 4.164 6.5 3.687 14.476 40.62 8.85 61.322.25 89.094.138.651.336.65.938.718l-.452 2.379.639-.035c9.386-29.954 15.84-52.735 1.031-93.281 1.737-1.404 2.587-3.86 1.094-6.781l-11.031-26.438c-1.383-3.329-4.334-4.186-6.782-3.468-.044-.084-.08-.166-.125-.25-1.518-2.858-2.623-4.024-3.03-3.813zM730.969 606.5c-.506.12-1.516 1.312-2.844 3.813-.045.084-.08.166-.125.25-2.448-.718-5.399.139-6.781 3.468l-11.032 26.438c-1.492 2.92-.643 5.377 1.094 6.781-14.808 40.546-7.972 63.837 1.414 93.79l1.125-.416-.884-1.791.756-.855c-8.6-27.772-14.48-48.984-.005-89.603 2.354.477 5.074-.495 6.5-3.688l11.032-26.312c1.42-3.11.412-5.638-1.469-7 .067-.136.12-.27.188-.406 1.327-2.669 1.626-4.258 1.218-4.469-.05-.026-.115-.017-.187 0zM695.531 588.688c-.544 0-1.097.717-1.093 2.125v10.906c-2.47.613-4.344 3.654-4.344 7.375v25.812c0 3.692 1.84 6.728 4.281 7.375l-.094 100.532h2.969l-.406-100.72c2.172-.92 3.75-3.768 3.75-7.187v-25.812c0-3.495-1.66-6.368-3.907-7.219l-.03-11.063c-.024-1.408-.582-2.125-1.126-2.125z" style="fill:#000;fill-opacity:1;fill-rule:evenodd;stroke:#000;stroke-width:1px;stroke-linecap:butt;stroke-linejoin:miter;stroke-opacity:1" transform="translate(-2598.161 -2378.954) scale(4.16448)"/><path style="fill:#fcef3c;fill-opacity:1;fill-rule:evenodd;stroke:#000;stroke-width:1px;stroke-linecap:butt;stroke-linejoin:miter;stroke-opacity:1" d="M670 678h50c6.38.616 5.653 9.902-1.812 10h-47.282c-9.404-.04-8.16-9.874-.906-10zM672.024 678.259l7.847 10.13M684.353 678.259l7.33 9.87M696.165 678.388l7.458 10M707.976 677.87l7.07 10.26" transform="translate(-2598.161 -2378.954) scale(4.16448)"/><g style="display:inline"><path style="fill:url(#b);fill-opacity:1" d="M1.5 1.5v458.868c0 166.31 134.315 301.132 300 301.132s300-134.821 300-301.132V1.5H1.5z"/></g><g style="display:inline"><path style="fill:none;fill-opacity:1;stroke:#000;stroke-width:3;stroke-miterlimit:4;stroke-dasharray:none;stroke-opacity:1" d="M1.5 1.5v458.868c0 166.31 134.315 301.132 300 301.132s300-134.821 300-301.132V1.5H1.5z"/></g></svg>
